public/images/4.svg

<svg width="65" height="129" viewBox="0 0 65 129" fill="none" xmlns="http://www.w3.org/2000/svg">
<path id="4" d="M37.1601 129V109.92H0.620117V92.6398L27.0801 0.839844H46.5201L18.9801 92.6398H37.1601V56.0998H55.5201V92.6398H64.3401V109.92H55.5201V129H37.1601Z" fill="#2D78E8" fill-opacity="0.11"/>
</svg>

<svg xmlns="http://www.w3.org/2000/svg" width="65" height="129" fill="none"><path fill="#2D78E8" fill-opacity=".11" d="M37.16 129v-19.08H.62V92.64L27.08.84h19.44l-27.54 91.8h18.18V56.1h18.36v36.54h8.82v17.28h-8.82V129H37.16Z"/></svg>
